goods.client/src/assets/icons/services/av.svg

<svg width="50" height="50" viewBox="0 0 50 50" fill="none" xmlns="http://www.w3.org/2000/svg">
<g id="available-svgrepo-com 1">
<path id="Vector" d="M10.3726 10.7218C10.3726 9.35371 9.26306 8.24414 7.895 8.24414C6.52693 8.24414 5.41736 9.35371 5.41736 10.7218L5.42058 13.7856C5.42058 13.792 5.43123 26.4554 5.43123 26.4554H10.3727L10.3726 10.7218Z" fill="#276041"/>
<path id="Vector_2" d="M22.8724 37.7159V49.2021L19.6809 49.1978L16.4893 31.9372L22.8724 37.7159Z" fill="#276041"/>
<path id="Vector_3" d="M19.6809 35.1287V49.1978L12.8724 49.1883V46.1819C12.8724 45.616 12.6458 44.75 12.3681 44.2574L2.53086 28.3787C2.2543 27.8861 2.02656 27.0202 2.02656 26.4552L2.0127 10.7212C2.0127 9.3531 3.12227 8.24353 4.49033 8.24353C5.8584 8.24353 6.96797 9.3531 6.96797 10.7212V24.8233L19.6809 35.1287Z" fill="#276041"/>
<path id="Vector_4" d="M20.6915 32.4511L17.8213 29.6149L19.6809 45.1947C20.6554 45.65 21.7383 45.9032 22.8724 45.9032V37.716C22.8724 36.0191 21.8915 33.65 20.6915 32.4511Z" fill="#276041"/>
<path id="Vector_5" d="M19.6809 34.5245V45.1947C17.1234 44.0054 15.317 41.4373 15.317 38.4617V34.1979L7.69357 26.5744C6.72657 25.6074 6.72657 24.0383 7.69357 23.0712C8.66163 22.1031 10.2297 22.1031 11.1979 23.0712L17.8213 29.6149C18.8702 30.8841 19.6809 32.9819 19.6809 34.5245Z" fill="#276041"/>
<path id="Vector_6" d="M39.6274 10.7218C39.6274 9.35371 40.7369 8.24414 42.105 8.24414C43.4731 8.24414 44.5826 9.35371 44.5826 10.7218L44.5794 13.7856C44.5794 13.792 44.5688 26.4554 44.5688 26.4554H39.6273V10.7218H39.6274Z" fill="#276041"/>
<path id="Vector_7" d="M43.0316 24.8233V10.7218C43.0316 9.35371 44.1412 8.24414 45.5093 8.24414C46.8773 8.24414 47.9869 9.35371 47.9869 10.7218L47.973 26.4553C47.973 27.0201 47.7454 27.8861 47.4687 28.3787L37.6318 44.2573C37.3542 44.7499 37.1275 45.6158 37.1275 46.1818V49.1882L27.1275 49.2022V37.7155L43.0316 24.8233Z" fill="#276041"/>
<path id="Vector_8" d="M29.3084 32.4507L38.8026 23.0711C39.7702 22.1035 41.3388 22.1035 42.3064 23.0711C43.2739 24.0387 43.2739 25.6072 42.3064 26.5748L34.6834 34.1977V38.4621C34.6834 42.5717 31.2373 45.9031 27.1277 45.9031V37.7153C27.1276 36.0192 28.109 33.6501 29.3084 32.4507Z" fill="#276041"/>
<path id="Vector_9" d="M35.3724 2.92548H30.0532V17.8191H35.3724V2.92548Z" fill="#E56133"/>
<path id="Vector_10" d="M32.1808 2.92548H14.6276V17.8191H32.1808V2.92548Z" fill="#E56133"/>
<path id="Vector_11" d="M33.2447 15.6915L31.117 17.8192L33.2447 19.9468H36.4361V15.6915H33.2447Z" fill="#AF462E"/>
<path id="Vector_12" d="M33.2447 15.6915H13.5639V19.9468H33.2447V15.6915Z" fill="#AF462E"/>
<path id="Vector_13" d="M33.2447 0.797852L31.117 2.92549L33.2447 5.05322H36.4361V0.797852H33.2447Z" fill="#AF462E"/>
<path id="Vector_14" d="M33.2447 0.797852H13.5639V5.05312H33.2447V0.797852Z" fill="#AF462E"/>
<path id="Vector_15" d="M33.2447 8.24475L31.117 10.3724L33.2447 12.5H36.4361V8.24475H33.2447Z" fill="#AF462E"/>
<path id="Vector_16" d="M33.2447 8.24475H13.5639V12.5H33.2447V8.24475Z" fill="#AF462E"/>
<path id="Vector_17" d="M11.7615 22.5069C11.1429 21.8883 10.3203 21.5475 9.44551 21.5475C8.84453 21.5475 8.26826 21.7083 7.76582 22.0096V10.7223C7.76582 10.1461 7.61572 9.60448 7.35352 9.13368C7.52617 9.07499 7.7083 9.04266 7.89502 9.04266C8.82119 9.04266 9.57461 9.79618 9.57461 10.7224V19.0183C9.57461 19.459 9.93184 19.8162 10.3725 19.8162C10.8131 19.8162 11.1703 19.459 11.1703 19.0183V10.7224C11.1703 8.9163 9.70107 7.44696 7.89502 7.44696C7.28691 7.44696 6.70107 7.61405 6.19229 7.9246C5.696 7.62177 5.11338 7.44696 4.49072 7.44696C2.68467 7.44696 1.21533 8.9163 1.21533 10.723L1.2292 26.4557C1.22988 27.1605 1.49082 28.1556 1.83623 28.7701C1.8418 28.78 1.84746 28.7896 1.85361 28.7992L11.6808 44.6615C11.888 45.039 12.0749 45.7578 12.0749 46.1814V49.1882C12.0749 49.6288 12.4321 49.986 12.8728 49.986C13.3134 49.986 13.6706 49.6288 13.6706 49.1882V46.1814C13.6706 45.4764 13.41 44.481 13.0645 43.8663C13.0589 43.8564 13.0532 43.8468 13.0473 43.8372L3.21973 27.9748C3.0125 27.5971 2.82529 26.878 2.8248 26.4542L2.81094 10.7223C2.81094 9.79608 3.56436 9.04257 4.49053 9.04257C5.4167 9.04257 6.17012 9.79608 6.17012 10.7223V24.823C6.17012 24.843 6.17168 24.8624 6.17305 24.8818C6.1876 25.7009 6.50586 26.5154 7.12939 27.139L14.7523 34.762C15.064 35.0736 15.5691 35.0736 15.8807 34.762C16.1923 34.4504 16.1923 33.9452 15.8807 33.6337L8.25781 26.0106C7.94062 25.6934 7.76582 25.2716 7.76582 24.8228C7.76582 24.3742 7.94062 23.9524 8.25781 23.6351C8.575 23.318 8.99688 23.1432 9.44551 23.1432C9.89414 23.1432 10.3159 23.318 10.6365 23.6386L20.1273 33.0147C21.1828 34.0702 22.0744 36.2228 22.0744 37.7155V49.2021C22.0744 49.6428 22.4316 50 22.8723 50C23.3129 50 23.6701 49.6428 23.6701 49.2021V37.7155C23.6701 35.8009 22.6096 33.2404 21.2522 31.8831L11.7615 22.5069Z" fill="white"/>
<path id="Vector_18" d="M45.5095 7.44678C44.8868 7.44678 44.3042 7.62158 43.808 7.92441C43.2991 7.61387 42.7132 7.44678 42.1053 7.44678C40.2992 7.44678 38.8299 8.91611 38.8299 10.7222V19.0182C38.8299 19.4588 39.1871 19.816 39.6277 19.816C40.0684 19.816 40.4256 19.4588 40.4256 19.0182V10.7222C40.4256 9.796 41.1791 9.04248 42.1052 9.04248C42.2919 9.04248 42.474 9.07481 42.6466 9.1335C42.3843 9.60439 42.2343 10.1459 42.2343 10.7221V22.0094C41.7318 21.7082 41.1556 21.5474 40.5546 21.5474C39.6797 21.5474 38.8571 21.8881 38.242 22.5033L28.7443 31.8863C27.3904 33.2402 26.3299 35.8007 26.3299 37.7153V49.2021C26.3299 49.6428 26.6871 50 27.1277 50C27.5684 50 27.9256 49.6428 27.9256 49.2021V37.7155C27.9256 36.2229 28.8172 34.0703 29.8692 33.0183L39.3669 23.6353C39.6841 23.3181 40.106 23.1433 40.5546 23.1433C41.0032 23.1433 41.425 23.3181 41.7423 23.6353C42.0595 23.9524 42.2343 24.3743 42.2343 24.823C42.2343 25.2717 42.0595 25.6935 41.7423 26.0107L34.1193 33.6337C33.8077 33.9453 33.8077 34.4505 34.1193 34.762C34.431 35.0736 34.9361 35.0736 35.2477 34.762L42.8706 27.1391C43.4942 26.5154 43.8124 25.7009 43.827 24.8818C43.8283 24.8624 43.83 24.8428 43.83 24.823V10.7223C43.83 9.79609 44.5835 9.04258 45.5096 9.04258C46.4358 9.04258 47.1893 9.79609 47.1893 10.7215L47.1754 26.4543C47.1751 26.8781 46.9877 27.5972 46.7804 27.9749L36.9532 43.8371C36.9473 43.8467 36.9415 43.8564 36.936 43.8662C36.5904 44.4809 36.3299 45.4761 36.3299 46.1813V49.1881C36.3299 49.6287 36.6871 49.9859 37.1277 49.9859C37.5684 49.9859 37.9256 49.6287 37.9256 49.1881V46.1813C37.9256 45.7576 38.1125 45.0389 38.3196 44.6614L48.1468 28.7991C48.1527 28.7896 48.1585 28.7798 48.1642 28.77C48.5097 28.1554 48.7706 27.1604 48.7712 26.4556L48.7851 10.7222C48.7848 8.91621 47.3155 7.44678 45.5095 7.44678Z" fill="white"/>
<path id="Vector_19" d="M13.5638 20.7447H36.4362C36.8768 20.7447 37.2341 20.3875 37.2341 19.9469V15.6916C37.2341 15.251 36.8768 14.8937 36.4362 14.8937H36.1703V13.298H36.4362C36.8768 13.298 37.2341 12.9408 37.2341 12.5002V8.24473C37.2341 7.8041 36.8768 7.44687 36.4362 7.44687H36.1703V5.85117H36.4362C36.8768 5.85117 37.2341 5.49395 37.2341 5.05332V0.797852C37.2341 0.357227 36.8768 0 36.4362 0H13.5638C13.1232 0 12.766 0.357227 12.766 0.797852V5.05312C12.766 5.49375 13.1232 5.85098 13.5638 5.85098H13.8298V7.44668H13.5638C13.1232 7.44668 12.766 7.80391 12.766 8.24453V12.5C12.766 12.9406 13.1232 13.2979 13.5638 13.2979H13.8298V14.8936H13.5638C13.1232 14.8936 12.766 15.2508 12.766 15.6914V19.9467C12.7659 20.3874 13.1231 20.7447 13.5638 20.7447ZM35.6383 19.1489H14.3617V16.4894H35.6383V19.1489ZM14.3617 1.5957H35.6383V4.25527H14.3617V1.5957ZM15.4255 5.85107H34.5744V7.44678H15.4255V5.85107ZM15.4255 13.2979H28.9893C29.43 13.2979 29.7872 12.9406 29.7872 12.5C29.7872 12.0594 29.43 11.7021 28.9893 11.7021H14.3617V9.04258H35.6383V11.7021H32.1808C31.7402 11.7021 31.383 12.0594 31.383 12.5C31.383 12.9406 31.7402 13.2979 32.1808 13.2979H34.5745V14.8936H15.4255V13.2979Z" fill="white"/>
</g>
</svg>

<svg xmlns="http://www.w3.org/2000/svg" width="50" height="50" fill="none"><path fill="#231F20" d="M10.373 10.722a2.478 2.478 0 0 0-4.956 0l.004 3.064.01 12.67h4.942zM22.872 37.716v11.486l-3.191-.004-3.192-17.26z"/><path fill="#231F20" d="M19.68 35.129v14.069l-6.808-.01v-3.006c0-.566-.226-1.432-.504-1.925L2.531 28.38c-.277-.493-.504-1.359-.504-1.924l-.014-15.734a2.478 2.478 0 0 1 4.955 0v14.102z"/><path fill="#231F20" d="m20.692 32.451-2.87-2.836 1.859 15.58a7.5 7.5 0 0 0 3.191.708v-8.187c0-1.697-.98-4.066-2.18-5.265"/><path fill="#231F20" d="M19.68 34.525v10.67c-2.557-1.19-4.363-3.758-4.363-6.733v-4.264l-7.623-7.624a2.478 2.478 0 0 1 3.504-3.503l6.623 6.544c1.05 1.27 1.86 3.367 1.86 4.91M39.627 10.722a2.478 2.478 0 0 1 4.956 0l-.004 3.064-.01 12.67h-4.942z"/><path fill="#231F20" d="M43.032 24.823V10.722a2.478 2.478 0 0 1 4.955 0l-.014 15.733c0 .565-.228 1.431-.504 1.924l-9.837 15.878c-.278.493-.505 1.359-.505 1.925v3.006l-10 .014V37.716z"/><path fill="#231F20" d="m29.308 32.45 9.495-9.379a2.477 2.477 0 1 1 3.503 3.504l-7.623 7.623v4.264c0 4.11-3.446 7.441-7.555 7.441v-8.188c0-1.696.981-4.065 2.18-5.264"/><path fill="#D12026" d="M35.372 2.925h-5.319V17.82h5.32z"/><path fill="#D12026" d="M32.18 2.925H14.629V17.82H32.18z"/><path fill="#91030E" d="m33.245 15.692-2.128 2.127 2.128 2.128h3.191v-4.255z"/><path fill="#91030E" d="M33.245 15.692H13.564v4.255h19.68zM33.245.798l-2.128 2.127 2.128 2.128h3.191V.798z"/><path fill="#91030E" d="M33.245.798H13.564v4.255h19.68zM33.245 8.245l-2.128 2.127 2.128 2.128h3.191V8.245z"/><path fill="#91030E" d="M33.245 8.245H13.564V12.5h19.68z"/><path fill="#fff" d="M11.762 22.507a3.25 3.25 0 0 0-2.316-.96c-.601 0-1.178.161-1.68.463V10.722c0-.576-.15-1.118-.412-1.588a1.682 1.682 0 0 1 2.221 1.589v8.295a.798.798 0 1 0 1.595 0v-8.296a3.28 3.28 0 0 0-3.275-3.275 3.26 3.26 0 0 0-1.703.478 3.26 3.26 0 0 0-1.701-.478 3.28 3.28 0 0 0-3.276 3.276l.014 15.733c0 .704.262 1.7.607 2.314l.018.03L11.68 44.66c.207.378.394 1.097.394 1.52v3.007a.798.798 0 0 0 1.596 0v-3.007c0-.705-.261-1.7-.606-2.315l-.018-.029L3.22 27.975c-.208-.378-.395-1.097-.395-1.52L2.81 10.721c0-.926.753-1.68 1.68-1.68s1.68.754 1.68 1.68v14.101q0 .03.002.059c.015.819.333 1.633.956 2.257l7.623 7.623a.798.798 0 0 0 1.129-1.128L8.258 26.01a1.67 1.67 0 0 1-.492-1.188c0-.449.175-.87.492-1.188a1.67 1.67 0 0 1 1.188-.492c.448 0 .87.175 1.19.496l9.491 9.376c1.056 1.055 1.947 3.208 1.947 4.7v11.487a.798.798 0 1 0 1.596 0V37.716c0-1.915-1.06-4.476-2.418-5.833zM45.51 7.447c-.623 0-1.206.175-1.702.477a3.26 3.26 0 0 0-1.703-.477 3.28 3.28 0 0 0-3.275 3.275v8.296a.798.798 0 0 0 1.596 0v-8.296a1.682 1.682 0 0 1 2.22-1.588 3.26 3.26 0 0 0-.412 1.588V22.01a3.26 3.26 0 0 0-1.68-.462 3.25 3.25 0 0 0-2.312.956l-9.498 9.383c-1.354 1.354-2.414 3.915-2.414 5.83v11.486a.798.798 0 1 0 1.596 0V37.716c0-1.493.891-3.646 1.943-4.698l9.498-9.383c.317-.317.739-.492 1.188-.492s.87.175 1.187.492.492.74.492 1.188c0 .449-.175.87-.492 1.188l-7.623 7.623a.798.798 0 1 0 1.129 1.128l7.623-7.623a3.26 3.26 0 0 0 .956-2.257l.003-.059v-14.1c0-.927.754-1.68 1.68-1.68s1.68.753 1.68 1.679l-.015 15.732c0 .424-.187 1.143-.395 1.52l-9.827 15.863-.017.03c-.346.614-.606 1.61-.606 2.314v3.007a.798.798 0 0 0 1.596 0v-3.007c0-.423.186-1.142.394-1.52L48.147 28.8l.017-.029c.346-.615.607-1.61.607-2.314l.014-15.734a3.28 3.28 0 0 0-3.275-3.275"/><path fill="#fff" d="M13.564 20.745h22.872c.44 0 .798-.358.798-.798v-4.255a.8.8 0 0 0-.798-.798h-.266v-1.596h.266c.44 0 .798-.357.798-.798V8.245a.8.8 0 0 0-.798-.798h-.266V5.85h.266c.44 0 .798-.357.798-.798V.798A.8.8 0 0 0 36.436 0H13.564a.8.8 0 0 0-.798.798v4.255c0 .44.357.798.798.798h.266v1.596h-.266a.8.8 0 0 0-.798.798V12.5c0 .44.357.798.798.798h.266v1.596h-.266a.8.8 0 0 0-.798.797v4.256c0 .44.357.798.798.798m22.074-1.596H14.362v-2.66h21.276zM14.362 1.596h21.276v2.66H14.362zm1.063 4.255h19.15v1.596h-19.15zm0 7.447H28.99a.798.798 0 0 0 0-1.596H14.362v-2.66h21.276v2.66h-3.457a.798.798 0 0 0 0 1.596h2.394v1.596h-19.15z"/></svg>
